icons/1_Primary/Etsy.svg

<svg width="1024" height="1024" fill="none" xmlns="http://www.w3.org/2000/svg"><g clip-path="url(#a)"><path d="M512 1024c282.77 0 512-229.23 512-512S794.77 0 512 0 0 229.23 0 512s229.23 512 512 512Z" fill="#F8C18C"/><path d="M272.42 487.83v-81.77c0-3 .3-4.85 5.45-4.85h69.35c12.12 0 18.78 10.3 23.63 29.68l3.94 15.45h11.81c2.12-43.91 3.93-63 3.93-63s-29.68 3.33-47.24 3.33h-88.74l-47.55-1.5v12.72l16.05 3c11.21 2.12 13.93 4.54 14.84 14.84 0 0 .91 30.28.91 80.26 0 49.98-.91 80-.91 80 0 9.08-3.64 12.41-14.84 14.54l-16.05 3v12.71l47.55-1.51h79.35c17.87 0 59.36 1.51 59.36 1.51.91-10.9 7-60.27 7.88-65.71h-11.21l-11.81 27c-9.39 21.19-23 22.71-38.16 22.71h-45.13c-15.14 0-22.41-6.06-22.41-19.08v-69.09s33 0 44.52.91c8.48.61 13.63 3 16.36 14.84l3.64 15.75h13l-.94-39.68 1.82-40h-13l-4.24 17.56c-2.73 11.51-4.54 13.63-16.36 14.84-13.32 1.52-44.82 1.21-44.82 1.21v.3l.02.03ZM452 414.55c-4.24 18.78-8.48 33.31-23.32 43-9.08 6.05-18.17 8.17-21.8 8.48v11.51h27v93c0 26 17.27 38.77 40.28 38.77 17.87 0 36.34-7.57 42.7-23.32l-6.36-8.18c-3 5.15-12.71 12.72-24.83 12.72-13.32 0-20.59-9.09-20.59-32.1v-82.1l44.83 3.33 2.42-20.6-47.33 1.82v-46l-13-.3v-.03Zm95.7 143-11.51.3c.6 6.66.91 15.14.91 23 0 8.18-.3 15.75-.91 19.38 0 0 23 8.47 46.34 8.47 31.5 0 56.63-15.14 56.63-44.82 0-50.87-76.32-43.3-76.32-77.53 0-14.23 12.72-19.68 26.65-19.68 10.9 0 20 3.94 21.8 9.7l7.57 22.71 11.21-.6c.91-12.12 1.51-26 3.33-37.25-9.69-4.24-30-6.67-42.7-6.67-29.69 0-53.61 13-53.61 42.1 0 50.57 74.5 40.28 74.5 77.53 0 13.32-8.18 22.71-26.65 22.71-17 0-25.44-8.78-28.76-17.57l-8.49-21.8.01.02Zm182.53 35c-17.53 49-39 61.66-58.34 61.66-8.17 0-12.09-3.63-13.31-9.36l-4.53-23.59-12.7.6c-2.42 13.91-4.84 29.33-8.16 42 7.56 5.74 20.25 8.77 30.23 8.77 20.86 0 52.6-2.73 81.62-71.65l48.67-114.87c3.93-9.37 5.44-10.28 16.93-14.82l6.36-2.39v-10.58l-28.72 1.51-30.83-1.51v10.58l7.86 2.41c7.86 2.42 11.49 5.44 11.49 10.89 0 2.72-.91 5.44-2.43 9.67-4.53 11.5-32.65 79.81-40.2 94.32l7.55-2.73c-13.3-32.95-33.55-88-36.57-97.33a15.07 15.07 0 0 1-.91-4.85c0-4.83 3.32-8.77 10.58-10.28l10-2.11v-10.57l-41.42 1.51-32.95-1.51v10.58l5.44 1.81c7.56 2.42 9.37 4.54 13.91 15.12 25.08 57.44 36.88 88.87 52.89 130l7.57-23.28h-.03Z" fill="#fff"/></g><defs><clipPath id="a"><path fill="#fff" d="M0 0h1024v1024H0z"/></clipPath></defs></svg>

<svg width="1024" height="1024" viewBox="0 0 1024 1024" fill="none" xmlns="http://www.w3.org/2000/svg">
<g clip-path="url(#clip0_2_2112)">
<path d="M512 1024C794.77 1024 1024 794.77 1024 512C1024 229.23 794.77 0 512 0C229.23 0 0 229.23 0 512C0 794.77 229.23 1024 512 1024Z" fill="#F8C18C"/>
<path d="M272.42 487.83V406.06C272.42 403.06 272.72 401.21 277.87 401.21H347.22C359.34 401.21 366 411.51 370.85 430.89L374.79 446.34H386.6C388.72 402.43 390.53 383.34 390.53 383.34C390.53 383.34 360.85 386.67 343.29 386.67H254.55L207 385.17V397.89L223.05 400.89C234.26 403.01 236.98 405.43 237.89 415.73C237.89 415.73 238.8 446.01 238.8 495.99C238.8 545.97 237.89 575.99 237.89 575.99C237.89 585.07 234.25 588.4 223.05 590.53L207 593.53V606.24L254.55 604.73H333.9C351.77 604.73 393.26 606.24 393.26 606.24C394.17 595.34 400.26 545.97 401.14 540.53H389.93L378.12 567.53C368.73 588.72 355.12 590.24 339.96 590.24H294.83C279.69 590.24 272.42 584.18 272.42 571.16V502.07C272.42 502.07 305.42 502.07 316.94 502.98C325.42 503.59 330.57 505.98 333.3 517.82L336.94 533.57H349.94L349 493.89L350.82 453.89H337.82L333.58 471.45C330.85 482.96 329.04 485.08 317.22 486.29C303.9 487.81 272.4 487.5 272.4 487.5V487.8L272.42 487.83ZM452 414.55C447.76 433.33 443.52 447.86 428.68 457.55C419.6 463.6 410.51 465.72 406.88 466.03V477.54H433.88V570.54C433.88 596.54 451.15 609.31 474.16 609.31C492.03 609.31 510.5 601.74 516.86 585.99L510.5 577.81C507.5 582.96 497.79 590.53 485.67 590.53C472.35 590.53 465.08 581.44 465.08 558.43V476.33L509.91 479.66L512.33 459.06L465 460.88V414.88L452 414.58V414.55ZM547.7 557.55L536.19 557.85C536.79 564.51 537.1 572.99 537.1 580.85C537.1 589.03 536.8 596.6 536.19 600.23C536.19 600.23 559.19 608.7 582.53 608.7C614.03 608.7 639.16 593.56 639.16 563.88C639.16 513.01 562.84 520.58 562.84 486.35C562.84 472.12 575.56 466.67 589.49 466.67C600.39 466.67 609.49 470.61 611.29 476.37L618.86 499.08L630.07 498.48C630.98 486.36 631.58 472.48 633.4 461.23C623.71 456.99 603.4 454.56 590.7 454.56C561.01 454.56 537.09 467.56 537.09 496.66C537.09 547.23 611.59 536.94 611.59 574.19C611.59 587.51 603.41 596.9 584.94 596.9C567.94 596.9 559.5 588.12 556.18 579.33L547.69 557.53L547.7 557.55ZM730.23 592.55C712.7 641.55 691.23 654.21 671.89 654.21C663.72 654.21 659.8 650.58 658.58 644.85L654.05 621.26L641.35 621.86C638.93 635.77 636.51 651.19 633.19 663.86C640.75 669.6 653.44 672.63 663.42 672.63C684.28 672.63 716.02 669.9 745.04 600.98L793.71 486.11C797.64 476.74 799.15 475.83 810.64 471.29L817 468.9V458.32L788.28 459.83L757.45 458.32V468.9L765.31 471.31C773.17 473.73 776.8 476.75 776.8 482.2C776.8 484.92 775.89 487.64 774.37 491.87C769.84 503.37 741.72 571.68 734.17 586.19L741.72 583.46C728.42 550.51 708.17 495.46 705.15 486.13C704.582 484.574 704.275 482.936 704.24 481.28C704.24 476.45 707.56 472.51 714.82 471L724.82 468.89V458.32L683.4 459.83L650.45 458.32V468.9L655.89 470.71C663.45 473.13 665.26 475.25 669.8 485.83C694.88 543.27 706.68 574.7 722.69 615.83L730.26 592.55H730.23Z" fill="white"/>
</g>
<defs>
<clipPath id="clip0_2_2112">
<rect width="1024" height="1024" fill="white"/>
</clipPath>
</defs>
</svg>
